img/icons/logo.svg

<svg width="259" height="33" viewBox="0 0 259 33" fill="none" xmlns="http://www.w3.org/2000/svg">
<path fill-rule="evenodd" clip-rule="evenodd" d="M21.0283 12.381C23.0854 13.8286 25.5996 14.7429 28.3424 14.7429V9.48583C27.8091 9.48583 27.2758 9.40964 26.8186 9.33345V13.4477C24.0758 13.4477 21.5616 12.6096 19.5045 11.0858V21.8285C19.5045 27.238 15.1617 31.5808 9.75222 31.5808C7.7713 31.5808 5.86656 30.9712 4.34277 29.9046C6.09513 31.7331 8.60938 32.7998 11.276 32.7998C16.6855 32.7998 21.0283 28.457 21.0283 23.0475V12.381ZM22.933 7.04777C21.8663 5.90493 21.1806 4.38114 21.0283 2.78116V2.09546H19.5807C19.9616 4.15257 21.1806 5.98112 22.933 7.04777ZM7.69511 25.7904C7.08559 25.0285 6.78083 24.038 6.78083 23.1237C6.78083 20.6857 8.76176 18.7047 11.276 18.7047C11.7331 18.7047 12.1903 18.7809 12.6474 18.9333V13.5239C12.1141 13.4477 11.657 13.4477 11.1236 13.4477V17.5619C10.6665 17.4095 10.2094 17.3333 9.75222 17.3333C7.31416 17.3333 5.25705 19.3143 5.25705 21.7523C5.25705 23.5809 6.24751 25.1047 7.69511 25.7904Z" fill="#FE2C55"/>
<path fill-rule="evenodd" clip-rule="evenodd" d="M19.5049 11.0855C21.562 12.5331 24.0762 13.4474 26.8191 13.4474V9.33319C25.2953 9.02843 23.9239 8.19035 22.9334 7.1237C21.181 6.05705 19.962 4.2285 19.5811 2.17139H15.7716V23.1997C15.7716 25.6377 13.7907 27.6186 11.2764 27.6186C9.82882 27.6186 8.5336 26.9329 7.69551 25.8663C6.24791 25.1044 5.25745 23.6568 5.25745 21.9044C5.25745 19.4664 7.23838 17.4855 9.75263 17.4855C10.2098 17.4855 10.6669 17.5616 11.124 17.714V13.5236C5.79078 13.5236 1.52417 17.7902 1.52417 23.1235C1.52417 25.7901 2.59082 28.152 4.26699 29.9043C5.79078 30.971 7.69551 31.5805 9.67644 31.5805C15.0859 31.5805 19.4287 27.2377 19.4287 21.8283L19.5049 11.0855Z" fill="white"/>
<path fill-rule="evenodd" clip-rule="evenodd" d="M26.8187 9.33302V8.19018C25.4473 8.19018 24.0759 7.80923 22.933 7.04734C23.9997 8.19018 25.3711 8.95207 26.8187 9.33302ZM19.5807 2.09502C19.5807 1.86646 19.5045 1.71408 19.5045 1.48551V0.799805H14.1712V21.8281C14.1712 24.2661 12.1903 26.2471 9.67605 26.2471C8.99035 26.2471 8.30465 26.0947 7.69513 25.7899C8.53321 26.8566 9.82843 27.5423 11.276 27.5423C13.7141 27.5423 15.695 25.5614 15.7712 23.1233V2.09502H19.5807ZM11.0475 13.3711V12.2282C10.5903 12.152 10.1332 12.152 9.67605 12.152C4.3428 12.0758 0 16.4948 0 21.8281C0 25.1804 1.75236 28.1518 4.3428 29.9042C2.59044 28.1518 1.52379 25.7899 1.52379 23.1233C1.52379 17.79 5.7904 13.5234 11.0475 13.3711Z" fill="#25F4EE"/>
<path d="M132.175 18.8945C132.175 20.0311 131.239 20.967 130.103 20.967C128.966 20.967 128.03 20.0311 128.03 18.8945C128.03 17.758 128.966 16.822 130.103 16.822C131.239 16.822 132.175 17.758 132.175 18.8945Z" fill="#EE3658"/>
<path d="M132.176 25.3127C132.176 26.4493 131.24 27.3852 130.103 27.3852C128.966 27.3852 128.031 26.4493 128.031 25.3127C128.031 24.1762 128.966 23.2402 130.103 23.2402C131.24 23.2402 132.176 24.1762 132.176 25.3127Z" fill="#25F4EE"/>
<path d="M34.5 9.06665H35.1017H50.0103L48.5395 13.4791H44.5282V28.9225V29.8585H39.5141C39.5141 29.8585 39.5141 29.7248 39.5141 29.5242V13.4791H35.1017H34.5V9.06665Z" fill="white"/>
<path d="M75.75 9.06714H76.3517H91.5946L90.1906 13.4796H85.8451V28.923V29.859H80.831C80.831 29.859 80.831 29.7253 80.831 29.5247V13.4796H76.3517H75.75V9.06714Z" fill="white"/>
<path d="M50.9469 16.1535V15.6855H55.8942V16.1535V28.5885V29.8588H50.9469V29.1902V16.1535Z" fill="white"/>
<path d="M58.3003 10.0028V9H59.3031H62.3784H63.1807V9.86911V18.6939L68.128 13.8804H74.078L67.8605 19.8973L74.8134 29.8587H69.3313L64.7184 22.9727L63.2476 24.3766V29.8587H58.3003V29.3907V10.0028Z" fill="white"/>
<path d="M109.244 10.0028V9H110.247H113.322H114.125V9.86911V18.6939L119.139 13.8804H125.022L118.804 19.8973L125.757 29.8587H120.342L115.662 22.9727L114.192 24.3766V29.8587H109.244V29.3907V10.0028Z" fill="white"/>
<path d="M106.436 18.0251C105.968 17.0222 105.366 16.0863 104.631 15.3509C103.896 14.6155 102.96 14.0138 101.957 13.5458C101.89 13.4789 101.756 13.4789 101.689 13.4121C101.622 13.4121 101.622 13.4121 101.556 13.3452C101.489 13.3452 101.422 13.2784 101.355 13.2784C101.288 13.2784 101.288 13.2784 101.221 13.2115C101.154 13.2115 101.154 13.2115 101.088 13.1447C101.021 13.1447 100.954 13.1447 100.954 13.0778H100.887C100.62 13.0109 100.419 12.9441 100.152 12.9441C100.018 13.0109 99.9511 13.0109 99.8174 13.0109C99.6168 13.0109 99.4162 12.9441 99.2825 12.9441C99.1488 12.9441 99.0151 12.9441 98.8814 12.9441C98.8145 12.9441 98.7477 12.9441 98.6808 12.9441C98.614 12.9441 98.5471 12.9441 98.4803 12.9441C98.3466 12.9441 98.146 12.9441 98.0123 12.9441C97.678 12.9441 97.3437 13.0109 97.0095 13.0778C96.9426 13.0778 96.8758 13.0778 96.8758 13.0778C96.8089 13.0778 96.8089 13.0778 96.742 13.0778C96.6083 13.0778 96.5415 13.1447 96.4078 13.1447C95.6724 13.3452 95.0038 13.6126 94.4021 14.0138C93.8004 14.348 93.1987 14.816 92.6639 15.3509C92.1291 15.8857 91.7279 16.4205 91.3268 17.0222C90.9925 17.6239 90.6583 18.2925 90.4577 19.0279C90.2571 19.7633 90.1234 20.4987 90.1234 21.3009C90.1234 22.1032 90.2571 22.8386 90.4577 23.574C90.6583 24.3094 90.9257 24.978 91.3268 25.5796C91.6611 26.1813 92.1291 26.783 92.6639 27.3179C93.1987 27.8527 93.7336 28.2538 94.4021 28.655C95.0038 28.9892 95.7392 29.3235 96.4078 29.5241C96.5415 29.5241 96.6752 29.5909 96.742 29.5909C96.8089 29.5909 96.8089 29.5909 96.8758 29.5909C96.9426 29.5909 97.0095 29.5909 97.1432 29.6578C97.21 29.6578 97.21 29.6578 97.2769 29.6578C97.3437 29.6578 97.4106 29.6578 97.5443 29.7246C97.6112 29.7246 97.6112 29.7246 97.678 29.7246C97.8117 29.7246 97.9454 29.7246 98.0791 29.7915C98.2128 29.7915 98.4134 29.7915 98.5471 29.7915C98.614 29.7915 98.6808 29.7915 98.6808 29.7915C98.7477 29.7915 98.8145 29.7915 98.8145 29.7915C99.0151 29.7915 99.1488 29.7915 99.2825 29.7915C99.4162 29.7915 99.6168 29.7915 99.7505 29.7246C99.8174 29.7246 99.9511 29.7246 100.018 29.6578C100.085 29.6578 100.152 29.6578 100.152 29.6578C100.218 29.6578 100.285 29.6578 100.352 29.5909C100.419 29.5909 100.419 29.5909 100.486 29.5909C100.62 29.5909 100.686 29.5241 100.82 29.5241C101.556 29.3235 102.224 29.0561 102.826 28.655C103.428 28.3207 104.029 27.8527 104.564 27.3179C105.099 26.783 105.5 26.2482 105.901 25.5796C106.235 24.978 106.57 24.2426 106.77 23.574C106.971 22.9055 107.105 22.1032 107.105 21.3009C107.105 20.1644 106.904 19.0279 106.436 18.0251ZM102.558 22.5043C102.492 22.8386 102.291 23.1729 102.157 23.5072C101.957 23.8414 101.756 24.1088 101.489 24.3094C101.221 24.5768 100.954 24.7774 100.686 24.978C100.352 25.1785 100.085 25.3122 99.6837 25.3791C99.3494 25.4459 99.082 25.5128 98.7477 25.5128H98.8145C98.7477 25.5128 98.7477 25.5128 98.6808 25.5128H98.614C98.614 25.5128 98.614 25.5128 98.5471 25.5128C98.3466 25.5128 98.0791 25.5128 97.8786 25.4459C97.7449 25.4459 97.6112 25.3791 97.4774 25.3791C97.1432 25.3122 96.8089 25.1785 96.4746 24.978C96.1403 24.7774 95.8729 24.5768 95.6724 24.3094C95.4049 24.042 95.2044 23.7746 95.0038 23.5072C94.8033 23.1729 94.6695 22.9055 94.6027 22.5043C94.5358 22.1701 94.469 21.7689 94.469 21.3678C94.469 20.9667 94.5358 20.6324 94.6027 20.2313C94.6695 19.897 94.8701 19.5627 95.0038 19.2284C95.2044 18.8942 95.4049 18.6267 95.6724 18.4262C95.9398 18.1588 96.2072 17.9582 96.4746 17.7576C96.8089 17.5571 97.1432 17.4234 97.4774 17.3565C97.6112 17.2897 97.7449 17.2897 97.9454 17.2897C98.146 17.2228 98.4134 17.2228 98.614 17.2228H98.6808C98.6808 17.2228 98.6808 17.2228 98.7477 17.2228C98.8145 17.2228 98.8145 17.2228 98.8814 17.2228C98.8814 17.2228 98.8814 17.2228 98.8145 17.2228C99.3494 17.2228 99.8174 17.3565 100.218 17.5571C100.686 17.7576 101.154 18.0919 101.556 18.4262C101.957 18.8273 102.224 19.2284 102.425 19.7633C102.625 20.2313 102.759 20.833 102.759 21.3678C102.759 21.7689 102.692 22.1032 102.558 22.5043Z" fill="white"/>
<path d="M55.8942 11.5408C55.8942 12.9447 54.7576 14.0144 53.4205 14.0144C52.0166 14.0144 50.9469 12.8779 50.9469 11.5408C50.9469 10.1368 52.0834 9.06714 53.4205 9.06714C54.8245 9.06714 55.8942 10.2037 55.8942 11.5408Z" fill="white"/>
<path d="M140.198 16.8216V20.6323H145.413V23.4402H140.198V29.7914H136.989V14.0137H146.75V16.8216H140.198Z" fill="white"/>
<path d="M146.817 24.443C146.817 21.0334 149.491 18.8271 152.566 18.8271C155.641 18.8271 158.316 21.0334 158.316 24.443C158.316 27.7857 155.641 29.9919 152.566 29.9919C149.491 29.9919 146.817 27.7857 146.817 24.443ZM155.24 24.443C155.24 22.7716 154.037 21.6351 152.566 21.6351C151.095 21.6351 149.892 22.7716 149.892 24.443C149.892 26.1143 151.095 27.184 152.566 27.184C154.037 27.184 155.24 26.0475 155.24 24.443Z" fill="white"/>
<path d="M167.876 19.1614L167.208 22.0362C166.539 21.7019 166.071 21.6351 165.67 21.6351C164.132 21.6351 163.063 23.039 163.063 26.1143V29.7913H160.054V19.0946H163.063V21.3676C163.664 19.5626 164.868 18.8271 166.205 18.8271C166.807 18.8271 167.408 18.894 167.876 19.1614Z" fill="white"/>
<path d="M184.522 25.2453C184.522 27.4515 183.051 29.7914 179.575 29.7914H172.823V14.0137H179.107C181.915 14.0137 183.72 15.685 183.72 18.0918C183.72 19.2283 183.252 20.8329 181.514 21.3677C183.519 21.702 184.522 23.5071 184.522 25.2453ZM175.965 16.8216V20.298H178.839C179.842 20.298 180.444 19.6295 180.444 18.5598C180.444 17.6238 179.909 16.8216 178.839 16.8216H175.965ZM181.313 24.9779C181.313 23.975 180.645 22.9722 179.107 22.9722H175.965V26.9835H179.04C180.578 26.9835 181.313 25.9807 181.313 24.9779Z" fill="white"/>
<path d="M196.69 19.0947V29.7915H193.682V28.0533C193.214 29.4572 191.542 30.0589 190.473 30.0589C187.665 30.0589 186.194 28.187 186.261 24.9779V19.0947H189.269V24.6437C189.269 26.315 190.272 27.0504 191.275 27.0504C192.345 27.0504 193.682 26.4488 193.682 24.5768V19.0947H196.69Z" fill="white"/>
<path d="M198.496 26.3158H201.304C201.304 26.9175 201.838 27.5861 202.908 27.5861C203.777 27.5861 204.446 27.2518 204.446 26.5832C204.446 26.1153 204.111 25.9147 203.309 25.7141L201.905 25.3799C199.164 24.6445 198.763 23.1068 198.763 21.9703C198.763 20.2989 200.501 18.7612 202.975 18.7612C204.914 18.7612 207.187 19.6972 207.187 22.2377H204.312C204.312 21.5023 203.71 21.168 202.975 21.168C202.306 21.168 201.705 21.5023 201.705 22.0371C201.705 22.572 202.173 22.7725 202.774 22.9731L204.513 23.4411C207.053 24.1096 207.387 25.7141 207.387 26.5832C207.387 28.8563 205.114 29.926 202.908 29.926C200.635 29.9928 198.496 28.7226 198.496 26.3158Z" fill="white"/>
<path d="M208.791 15.4181C208.791 14.4153 209.66 13.613 210.663 13.613C211.733 13.613 212.535 14.4153 212.535 15.4181C212.535 16.4209 211.666 17.2232 210.663 17.2232C209.66 17.2232 208.791 16.4209 208.791 15.4181ZM209.192 19.0951H212.201V29.7919H209.192V19.0951Z" fill="white"/>
<path d="M225.103 23.9081V29.7913H222.095V24.2424C222.095 22.571 221.092 21.7688 220.089 21.7688C219.02 21.7688 217.682 22.3705 217.682 24.3092V29.7913H214.674V19.0946H217.682V20.8996C218.15 19.4288 219.822 18.8271 220.891 18.8271C223.632 18.8271 225.103 20.6991 225.103 23.9081Z" fill="white"/>
<path d="M237.939 25.3799H229.85C230.184 26.5832 231.187 27.3186 232.591 27.3186C233.661 27.3186 234.73 26.8507 235.399 26.1153L237.137 27.8535C236.134 29.1906 234.262 29.926 232.39 29.926C229.114 29.926 226.708 27.6529 226.708 24.377C226.708 20.9006 229.315 18.7612 232.39 18.7612C235.466 18.7612 237.939 20.9006 237.939 24.1765C238.006 24.5776 238.006 24.9119 237.939 25.3799ZM234.998 23.4411C234.931 22.1708 233.861 21.4354 232.524 21.4354C231.321 21.4354 230.251 22.0371 229.917 23.4411H234.998Z" fill="white"/>
<path d="M239.076 26.3158H241.884C241.884 26.9175 242.419 27.5861 243.489 27.5861C244.358 27.5861 245.026 27.2518 245.026 26.5832C245.026 26.1153 244.692 25.9147 243.89 25.7141L242.486 25.3799C239.745 24.6445 239.344 23.1068 239.344 21.9703C239.344 20.2989 241.082 18.7612 243.555 18.7612C245.494 18.7612 247.767 19.6972 247.767 22.2377H244.893C244.893 21.5023 244.291 21.168 243.555 21.168C242.887 21.168 242.285 21.5023 242.285 22.0371C242.285 22.572 242.753 22.7725 243.355 22.9731L245.093 23.4411C247.634 24.1096 247.968 25.7141 247.968 26.5832C247.968 28.8563 245.695 29.926 243.489 29.926C241.282 29.9928 239.076 28.7226 239.076 26.3158Z" fill="white"/>
<path d="M249.172 26.3158H251.979C251.979 26.9175 252.514 27.5861 253.584 27.5861C254.453 27.5861 255.122 27.2518 255.122 26.5832C255.122 26.1153 254.787 25.9147 253.985 25.7141L252.581 25.3799C249.84 24.6445 249.439 23.1068 249.439 21.9703C249.439 20.2989 251.177 18.7612 253.651 18.7612C255.59 18.7612 257.863 19.6972 257.863 22.2377H254.988C254.988 21.5023 254.386 21.168 253.651 21.168C252.982 21.168 252.381 21.5023 252.381 22.0371C252.381 22.572 252.849 22.7725 253.45 22.9731L255.188 23.4411C257.729 24.1096 258.063 25.7141 258.063 26.5832C258.063 28.8563 255.79 29.926 253.584 29.926C251.378 29.9928 249.172 28.7226 249.172 26.3158Z" fill="white"/>
</svg>

<svg id="Layer_1" data-name="Layer 1" xmlns="http://www.w3.org/2000/svg" viewBox="0 0 258.06 32"><defs><style>.cls-1{fill:#fe2c55;}.cls-2{fill:#fff;}.cls-3{fill:#25f4ee;}.cls-4{fill:#ee3658;}</style></defs><title>logo</title><path class="cls-1" d="M21,12.38a12.69,12.69,0,0,0,7.31,2.36V9.49a9.38,9.38,0,0,1-1.52-.15v4.11a12.16,12.16,0,0,1-7.31-2.36V21.83a9.72,9.72,0,0,1-9.75,9.75A9.48,9.48,0,0,1,4.34,29.9a9.61,9.61,0,0,0,6.93,2.9A9.72,9.72,0,0,0,21,23ZM22.93,7A7.32,7.32,0,0,1,21,2.78V2.1H19.58A7.37,7.37,0,0,0,22.93,7ZM7.7,25.79a4.35,4.35,0,0,1-.91-2.67,4.44,4.44,0,0,1,4.5-4.42,4.31,4.31,0,0,1,1.37.23V13.52a10.21,10.21,0,0,0-1.52-.08v4.11a4.31,4.31,0,0,0-1.37-.23,4.49,4.49,0,0,0-4.5,4.42A4.39,4.39,0,0,0,7.7,25.79Z" transform="translate(0 -0.8)"/><path class="cls-2" d="M19.5,11.09a12.69,12.69,0,0,0,7.31,2.36V9.33a7.37,7.37,0,0,1-3.89-2.21,7.37,7.37,0,0,1-3.35-5H15.77v21a4.44,4.44,0,0,1-4.5,4.42A4.55,4.55,0,0,1,7.7,25.87a4.43,4.43,0,0,1,2.06-8.38,4.31,4.31,0,0,1,1.37.23V13.52a9.56,9.56,0,0,0-9.6,9.6A9.75,9.75,0,0,0,4.27,29.9a9.48,9.48,0,0,0,5.41,1.68,9.72,9.72,0,0,0,9.75-9.75Z" transform="translate(0 -0.8)"/><path class="cls-3" d="M26.82,9.33V8.19A7,7,0,0,1,22.93,7,8.13,8.13,0,0,0,26.82,9.33ZM19.58,2.1c0-.23-.08-.38-.08-.61V.8H14.17v21a4.5,4.5,0,0,1-6.48,4,4.51,4.51,0,0,0,8.08-2.67V2.1ZM11,13.37V12.23a8.28,8.28,0,0,0-1.37-.08A9.64,9.64,0,0,0,0,21.83,9.79,9.79,0,0,0,4.34,29.9a9.5,9.5,0,0,1-2.82-6.78A9.78,9.78,0,0,1,11,13.37Z" transform="translate(0 -0.8)"/><path class="cls-4" d="M132.18,18.89a2.07,2.07,0,1,1-2.07-2.07A2.08,2.08,0,0,1,132.18,18.89Z" transform="translate(0 -0.8)"/><path class="cls-3" d="M132.18,25.31a2.07,2.07,0,1,1-2.07-2.07A2.08,2.08,0,0,1,132.18,25.31Z" transform="translate(0 -0.8)"/><path class="cls-2" d="M34.5,9.07H50l-1.47,4.41h-4V29.86h-5V13.48h-5Z" transform="translate(0 -0.8)"/><path class="cls-2" d="M75.75,9.07H91.59l-1.4,4.41H85.85V29.86h-5V13.48H75.75Z" transform="translate(0 -0.8)"/><path class="cls-2" d="M50.95,16.15v-.47h4.95V29.86H50.95V16.15Z" transform="translate(0 -0.8)"/><path class="cls-2" d="M58.3,10V9h4.88v9.69l4.95-4.81h6l-6.22,6,7,10H69.33L64.72,23l-1.47,1.4v5.48H58.3V10Z" transform="translate(0 -0.8)"/><path class="cls-2" d="M109.24,10V9h4.88v9.69l5-4.81H125l-6.22,6,7,10h-5.42L115.66,23l-1.47,1.4v5.48h-4.95V10Z" transform="translate(0 -0.8)"/><path class="cls-2" d="M106.44,18a9.42,9.42,0,0,0-1.81-2.67A9.4,9.4,0,0,0,102,13.55c-.07-.07-.2-.07-.27-.13s-.07,0-.13-.07-.13-.07-.2-.07-.07,0-.13-.07-.07,0-.13-.07-.13,0-.13-.07h-.07a2.84,2.84,0,0,0-.74-.13.6.6,0,0,1-.33.07c-.2,0-.4-.07-.53-.07H98a5.16,5.16,0,0,0-1,.13h-.27c-.13,0-.2.07-.33.07a6.75,6.75,0,0,0-2,.87,8.05,8.05,0,0,0-1.74,1.34A10.47,10.47,0,0,0,91.33,17a9.09,9.09,0,0,0-.87,2,7.89,7.89,0,0,0,0,4.55,6.76,6.76,0,0,0,.87,2,8.06,8.06,0,0,0,1.34,1.74,8.59,8.59,0,0,0,1.74,1.34,10.7,10.7,0,0,0,2,.87,2.89,2.89,0,0,1,.33.07h.13a.51.51,0,0,1,.27.07h.13a.51.51,0,0,1,.27.07h.13a.85.85,0,0,1,.4.07h1.2a1.14,1.14,0,0,0,.47-.07.4.4,0,0,0,.27-.07h.13a.25.25,0,0,0,.2-.07h.13c.13,0,.2-.07.33-.07a6.76,6.76,0,0,0,2-.87,8.06,8.06,0,0,0,1.74-1.34,8.57,8.57,0,0,0,1.34-1.74,10.67,10.67,0,0,0,.87-2,8.09,8.09,0,0,0,.34-2.27A7.77,7.77,0,0,0,106.44,18Zm-3.88,4.48a6.17,6.17,0,0,1-.4,1,2.67,2.67,0,0,1-.67.8,7.09,7.09,0,0,1-.8.67,2.63,2.63,0,0,1-1,.4,4.52,4.52,0,0,1-.94.13h-.2a2.27,2.27,0,0,1-.67-.07c-.13,0-.27-.07-.4-.07a3.16,3.16,0,0,1-1-.4,2.67,2.67,0,0,1-.8-.67,7.08,7.08,0,0,1-.67-.8,2.64,2.64,0,0,1-.4-1,5.88,5.88,0,0,1-.13-1.14,6.58,6.58,0,0,1,.13-1.14,6.27,6.27,0,0,1,.4-1,2.67,2.67,0,0,1,.67-.8,7.09,7.09,0,0,1,.8-.67,3.16,3.16,0,0,1,1-.4,1,1,0,0,1,.47-.07,2.27,2.27,0,0,1,.67-.07h.2a3.1,3.1,0,0,1,1.4.33,5.75,5.75,0,0,1,1.34.87,3.57,3.57,0,0,1,.87,1.34,4.31,4.31,0,0,1,.33,1.6A3.39,3.39,0,0,1,102.56,22.5Z" transform="translate(0 -0.8)"/><path class="cls-2" d="M55.89,11.54a2.47,2.47,0,1,1-2.47-2.47A2.47,2.47,0,0,1,55.89,11.54Z" transform="translate(0 -0.8)"/><path class="cls-2" d="M140.2,16.82v3.81h5.21v2.81H140.2v6.35H137V14h9.76v2.81Z" transform="translate(0 -0.8)"/><path class="cls-2" d="M146.82,24.44A5.75,5.75,0,1,1,152.57,30,5.55,5.55,0,0,1,146.82,24.44Zm8.42,0a2.68,2.68,0,1,0-5.35,0,2.62,2.62,0,0,0,2.67,2.74A2.66,2.66,0,0,0,155.24,24.44Z" transform="translate(0 -0.8)"/><path class="cls-2" d="M167.88,19.16,167.21,22a3.26,3.26,0,0,0-1.54-.4c-1.54,0-2.61,1.4-2.61,4.48v3.68h-3V19.09h3v2.27a3.24,3.24,0,0,1,3.14-2.54A3.41,3.41,0,0,1,167.88,19.16Z" transform="translate(0 -0.8)"/><path class="cls-2" d="M184.52,25.25c0,2.21-1.47,4.55-4.95,4.55h-6.75V14h6.28c2.81,0,4.61,1.67,4.61,4.08a3.24,3.24,0,0,1-2.21,3.28A3.74,3.74,0,0,1,184.52,25.25ZM176,16.82V20.3h2.87a1.55,1.55,0,0,0,1.6-1.74,1.58,1.58,0,0,0-1.6-1.74ZM181.31,25a2,2,0,0,0-2.21-2H176v4H179A2,2,0,0,0,181.31,25Z" transform="translate(0 -0.8)"/><path class="cls-2" d="M196.69,19.09v10.7h-3V28.05a3.44,3.44,0,0,1-3.21,2c-2.81,0-4.28-1.87-4.21-5.08V19.09h3v5.55c0,1.67,1,2.41,2,2.41a2.28,2.28,0,0,0,2.41-2.47V19.09Z" transform="translate(0 -0.8)"/><path class="cls-2" d="M198.5,26.32h2.81c0,.6.53,1.27,1.6,1.27.87,0,1.54-.33,1.54-1,0-.47-.34-.67-1.14-.87l-1.4-.33c-2.74-.74-3.14-2.27-3.14-3.41,0-1.67,1.74-3.21,4.21-3.21,1.94,0,4.21.94,4.21,3.48h-2.87c0-.74-.6-1.07-1.34-1.07s-1.27.33-1.27.87.47.74,1.07.94l1.74.47c2.54.67,2.87,2.27,2.87,3.14,0,2.27-2.27,3.34-4.48,3.34S198.5,28.72,198.5,26.32Z" transform="translate(0 -0.8)"/><path class="cls-2" d="M208.79,15.42a1.86,1.86,0,0,1,1.87-1.81,1.81,1.81,0,0,1,1.87,1.81,1.87,1.87,0,0,1-3.74,0Zm.4,3.68h3v10.7h-3Z" transform="translate(0 -0.8)"/><path class="cls-2" d="M225.1,23.91v5.88h-3V24.24c0-1.67-1-2.47-2-2.47a2.3,2.3,0,0,0-2.41,2.54v5.48h-3V19.09h3v1.8a3.4,3.4,0,0,1,3.21-2.07C223.63,18.83,225.1,20.7,225.1,23.91Z" transform="translate(0 -0.8)"/><path class="cls-2" d="M237.94,25.38h-8.09a2.64,2.64,0,0,0,2.74,1.94,3.89,3.89,0,0,0,2.81-1.2l1.74,1.74a6,6,0,0,1-4.75,2.07,5.41,5.41,0,0,1-5.68-5.55,5.46,5.46,0,0,1,5.68-5.62,5.3,5.3,0,0,1,5.55,5.42A3.62,3.62,0,0,1,237.94,25.38ZM235,23.44a2.22,2.22,0,0,0-2.47-2,2.5,2.5,0,0,0-2.61,2Z" transform="translate(0 -0.8)"/><path class="cls-2" d="M239.08,26.32h2.81c0,.6.54,1.27,1.6,1.27.87,0,1.54-.33,1.54-1,0-.47-.33-.67-1.14-.87l-1.4-.33c-2.74-.74-3.14-2.27-3.14-3.41,0-1.67,1.74-3.21,4.21-3.21,1.94,0,4.21.94,4.21,3.48h-2.87c0-.74-.6-1.07-1.34-1.07s-1.27.33-1.27.87.47.74,1.07.94l1.74.47c2.54.67,2.88,2.27,2.88,3.14,0,2.27-2.27,3.34-4.48,3.34S239.08,28.72,239.08,26.32Z" transform="translate(0 -0.8)"/><path class="cls-2" d="M249.17,26.32H252c0,.6.54,1.27,1.6,1.27.87,0,1.54-.33,1.54-1,0-.47-.33-.67-1.14-.87l-1.4-.33c-2.74-.74-3.14-2.27-3.14-3.41,0-1.67,1.74-3.21,4.21-3.21,1.94,0,4.21.94,4.21,3.48H255c0-.74-.6-1.07-1.34-1.07s-1.27.33-1.27.87.47.74,1.07.94l1.74.47c2.54.67,2.87,2.27,2.87,3.14,0,2.27-2.27,3.34-4.48,3.34S249.17,28.72,249.17,26.32Z" transform="translate(0 -0.8)"/></svg>
